Suru++-Ubuntu/apps/scalable/accessories-camera.svg

<svg width="256" height="256" version="1.1" viewBox="0 0 67.73 67.73" xmlns="http://www.w3.org/2000/svg" xmlns:xlink="http://www.w3.org/1999/xlink">
 <defs>
  <linearGradient id="linearGradient1108" x1="296" x2="296" y1="-212" y2="202.4" gradientUnits="userSpaceOnUse">
   <stop style="stop-color:#ffffff" offset="0"/>
   <stop style="stop-color:#ffffff;stop-opacity:.09803922" offset=".135"/>
   <stop style="stop-color:#ffffff;stop-opacity:0" offset="1"/>
  </linearGradient>
  <clipPath id="clipPath1082-3-367">
   <path d="M 361.9375,-212 C 507.2348,-212 528,-191.28677 528,-46.125 V 70.125 C 528,215.28618 507.2348,236 361.9375,236 H 214.0625 C 68.7652,236 48,215.28618 48,70.125 V -46.125 C 48,-191.28677 68.7652,-212 214.0625,-212 Z" style="fill:#8c59d9"/>
  </clipPath>
  <radialGradient id="radialGradient4404" cx="-256" cy="-256.2" r="96" gradientTransform="matrix(0 -.8333347 -.8333347 0 -461.50049 -57.33369)" gradientUnits="userSpaceOnUse">
   <stop style="stop-color:#000000;stop-opacity:0" offset="0"/>
   <stop style="stop-color:#000000;stop-opacity:0" offset=".899"/>
   <stop style="stop-color:#000000;stop-opacity:.26165804" offset=".949"/>
   <stop style="stop-color:#000000" offset="1"/>
  </radialGradient>
  <linearGradient id="linearGradient4301" x1="-434" x2="-82" y1="-256" y2="-256" gradientUnits="userSpaceOnUse">
   <stop style="stop-color:#000000;stop-opacity:0" offset="0"/>
   <stop style="stop-color:#000000" offset=".733"/>
   <stop style="stop-color:#000000;stop-opacity:0" offset="1"/>
  </linearGradient>
  <filter id="filter4323" x="-.01" y="-.01" width="1.024" height="1.024" style="color-interpolation-filters:sRGB">
   <feGaussianBlur stdDeviation="1.76"/>
  </filter>
  <filter id="filter978" x="-.02" y="-.03" width="1.046" height="1.05" style="color-interpolation-filters:sRGB">
   <feGaussianBlur stdDeviation="2.32"/>
  </filter>
  <filter id="filter4569" x="-.01" y="-.01" width="1.023" height="1.025" style="color-interpolation-filters:sRGB">
   <feGaussianBlur stdDeviation="1.16"/>
  </filter>
 </defs>
 <g transform="translate(0,-229.26666)">
  <path d="m43.004513 233.61429c19.221622 0 21.968685 2.74019 21.968685 21.94388v15.37891c0 19.20362-2.747063 21.94388-21.968685 21.94388h-19.56263c-19.221622 0-21.968685-2.74026-21.968685-21.94388v-15.37891c0-19.20369 2.7470633-21.94388 21.968685-21.94388z" style="fill:none;opacity:.2;stroke-linecap:round;stroke-linejoin:round;stroke-width:1.0583333;stroke:#000000"/>
  <path transform="matrix(.26458333 0 0 .26458333 -1.8735229e-8 232.67026)" d="m162.53675 3.5680001c72.64865 0 83.03125 10.356615 83.03125 82.937505v58.125005c0 72.58059-10.3826 82.9375-83.03125 82.9375h-73.937496c-72.648654 0-83.031254-10.35691-83.031254-82.9375v-58.125005c0-72.58089 10.3826-82.937505 83.031254-82.937505z" style="filter:url(#filter4569);opacity:.1"/>
  <path transform="matrix(.26458333 0 0 .26458333 -1.8735229e-8 232.67026)" d="m162.53675 5.5680001c72.64865 0 83.03125 10.356615 83.03125 82.937505v58.125005c0 72.58059-10.3826 82.9375-83.03125 82.9375h-73.937496c-72.648654 0-83.031254-10.35691-83.031254-82.9375v-58.125005c0-72.58089 10.3826-82.937505 83.031254-82.937505z" style="filter:url(#filter978);opacity:.2"/>
  <path d="m43.004513 233.61429c19.221622 0 21.968685 2.74019 21.968685 21.94388v15.37891c0 19.20362-2.747063 21.94388-21.968685 21.94388h-19.56263c-19.221622 0-21.968685-2.74026-21.968685-21.94388v-15.37891c0-19.20369 2.7470633-21.94388 21.968685-21.94388z" style="fill:#e6e6e6"/>
  <path d="m1.473198 252.66429v18.27279c0 19.20362 2.7470633 21.94388 21.968688 21.94388h19.562627c19.221624 0 21.968687-2.74026 21.968687-21.94388v-18.27279z" style="fill:#ffffff;opacity:.3"/>
  <circle cx="56.507" cy="241.023" r="2.117" style="fill:#df382c"/>
  <circle transform="matrix(0 -.13229167 -.13229167 0 -.64346802 229.38096)" cx="-258" cy="-256" r="176" style="fill-opacity:.99607843;filter:url(#filter4323);opacity:.1"/>
  <circle transform="matrix(0 -.13229167 -.13229167 0 -.64346902 229.38096)" cx="-258" cy="-256" r="176" style="fill:url(#linearGradient4301);filter:url(#filter4291);opacity:.4"/>
  <g transform="matrix(.26458333 0 0 .26458333 98.839864 221.97263)" style="enable-background:new">
   <circle transform="matrix(0,-1,-1,0,0,0)" cx="-156" cy="248" r="88" style="fill:#f2f2f2"/>
   <circle transform="matrix(0,-1,-1,0,0,0)" cx="-157" cy="248" r="80" style="fill:#ffffff"/>
   <circle transform="matrix(0,-1,-1,0,0,0)" cx="-156" cy="248" r="80" style="fill:#46444a"/>
   <path d="m-248.0007 75.999297a80.000135 80.000135 0 0 0-79.9993 80.000693 80.000135 80.000135 0 0 0 79.9993 80.00069 80.000135 80.000135 0 0 0 80.0007-80.00069 80.000135 80.000135 0 0 0-80.0007-80.000693zm0 28.622583a51.37813 51.37813 0 0 1 51.37811 51.37811 51.37813 51.37813 0 0 1-51.37811 51.37811 51.37813 51.37813 0 0 1-51.37811-51.37811 51.37813 51.37813 0 0 1 51.37811-51.37811z" style="fill:url(#radialGradient4404);opacity:.1"/>
   <circle transform="matrix(0,-1,-1,0,0,0)" cx="-156" cy="248" r="64" style="fill:#a7a7f1"/>
   <circle transform="matrix(0,-1,-1,0,0,0)" cx="-156" cy="248" r="60" style="fill:#8f76e4"/>
   <circle transform="matrix(0,-1,-1,0,0,0)" cx="-156" cy="248" r="40" style="fill:#8c59d9"/>
   <circle transform="matrix(-.1391731 -.99026807 -.99026807 .1391731 0 0)" cx="-119.981" cy="267.198" r="20" style="fill:#7839b7"/>
   <circle transform="rotate(-8)" cx="-258.262" cy="113.158" r="6" style="fill:#ffffff;opacity:.3"/>
   <circle transform="rotate(-8)" cx="-276.333" cy="126.776" r="2" style="fill:#ffffff;opacity:.3"/>
   <circle cx="-222" cy="130" r="24" style="fill:#ffffff;opacity:.2"/>
   <path d="m -248,68 a 87.999992,87.999992 0 0 0 -88,88 87.999992,87.999992 0 0 0 0.041,0.83008 A 87.999992,87.999992 0 0 1 -248,70 87.999992,87.999992 0 0 1 -160.04102,157.16992 87.999992,87.999992 0 0 0 -160,156 87.999992,87.999992 0 0 0 -248,68 Z" style="fill:#ffffff;opacity:.4"/>
  </g>
  <path transform="matrix(.13229167 0 0 .13229167 -4.876802 261.66013)" d="M 361.9375,-212 C 507.2348,-212 528,-191.28677 528,-46.125 V 70.125 C 528,215.28618 507.2348,236 361.9375,236 H 214.0625 C 68.7652,236 48,215.28618 48,70.125 V -46.125 C 48,-191.28677 68.7652,-212 214.0625,-212 Z" clip-path="url(#clipPath1082-3-367)" style="fill:none;opacity:.5;stroke-linecap:round;stroke-linejoin:round;stroke-width:8;stroke:url(#linearGradient1108)"/>
 </g>
</svg>

<svg xmlns="http://www.w3.org/2000/svg" xmlns:xlink="http://www.w3.org/1999/xlink" width="256" height="256" version="1.1" viewBox="0 0 67.73 67.73">
 <defs>
  <linearGradient id="linearGradient1108" x1="296" x2="296" y1="-212" y2="202.4" gradientUnits="userSpaceOnUse" xlink:href="#linearGradient1013"/>
  <linearGradient id="linearGradient1013">
   <stop offset="0" style="stop-color:#ffffff"/>
   <stop style="stop-color:#ffffff;stop-opacity:0.09803922" offset=".135"/>
   <stop style="stop-color:#ffffff;stop-opacity:0" offset="1"/>
  </linearGradient>
  <clipPath id="clipPath1082-3-367" clipPathUnits="userSpaceOnUse">
   <path d="M 361.9375,-212 C 507.2348,-212 528,-191.28677 528,-46.125 V 70.125 C 528,215.28618 507.2348,236 361.9375,236 H 214.0625 C 68.7652,236 48,215.28618 48,70.125 V -46.125 C 48,-191.28677 68.7652,-212 214.0625,-212 Z" style="fill:#8c59d9"/>
  </clipPath>
  <radialGradient id="radialGradient4404" cx="-256" cy="-256.2" r="96" fx="-256" fy="-256.2" gradientTransform="matrix(0,-0.8333347,-0.8333347,0,-461.50049,-57.33369)" gradientUnits="userSpaceOnUse" xlink:href="#linearGradient4398"/>
  <linearGradient id="linearGradient4398">
   <stop offset="0" style="stop-color:#000000;stop-opacity:0"/>
   <stop style="stop-color:#000000;stop-opacity:0" offset=".899"/>
   <stop offset=".949" style="stop-color:#000000;stop-opacity:0.26165804"/>
   <stop offset="1" style="stop-color:#000000"/>
  </linearGradient>
  <linearGradient id="linearGradient4301" x1="-434" x2="-82" y1="-256" y2="-256" gradientUnits="userSpaceOnUse" xlink:href="#linearGradient4295"/>
  <linearGradient id="linearGradient4295">
   <stop offset="0" style="stop-color:#000000;stop-opacity:0"/>
   <stop style="stop-color:#000000" offset=".733"/>
   <stop offset="1" style="stop-color:#000000;stop-opacity:0"/>
  </linearGradient>
  <filter style="color-interpolation-filters:sRGB" id="filter4323" width="1.024" height="1.024" x="-.01" y="-.01">
   <feGaussianBlur stdDeviation="1.76"/>
  </filter>
  <filter style="color-interpolation-filters:sRGB" id="filter978" width="1.046" height="1.05" x="-.02" y="-.03">
   <feGaussianBlur stdDeviation="2.32"/>
  </filter>
  <filter style="color-interpolation-filters:sRGB" id="filter4569" width="1.023" height="1.025" x="-.01" y="-.01">
   <feGaussianBlur stdDeviation="1.16"/>
  </filter>
 </defs>
 <g transform="translate(0,-229.26666)">
  <path d="m 43.004513,233.61429 c 19.221622,0 21.968685,2.74019 21.968685,21.94388 v 15.37891 c 0,19.20362 -2.747063,21.94388 -21.968685,21.94388 h -19.56263 c -19.2216217,0 -21.968685,-2.74026 -21.968685,-21.94388 v -15.37891 c 0,-19.20369 2.7470633,-21.94388 21.968685,-21.94388 z" style="opacity:0.2;fill:none;stroke:#000000;stroke-width:1.05833328;stroke-linecap:round;stroke-linejoin:round"/>
  <path d="m 162.53675,3.5680001 c 72.64865,0 83.03125,10.3566149 83.03125,82.9375049 v 58.125005 c 0,72.58059 -10.3826,82.9375 -83.03125,82.9375 H 88.599254 C 15.9506,227.56801 5.568,217.2111 5.568,144.63051 V 86.505505 c 0,-72.58089 10.3826,-82.9375049 83.031254,-82.9375049 z" transform="matrix(0.26458333,0,0,0.26458333,-1.8735229e-8,232.67026)" style="opacity:0.1;filter:url(#filter4569)"/>
  <path style="opacity:0.2;filter:url(#filter978)" d="m 162.53675,5.5680001 c 72.64865,0 83.03125,10.3566149 83.03125,82.9375049 v 58.125005 c 0,72.58059 -10.3826,82.9375 -83.03125,82.9375 H 88.599254 C 15.9506,229.56801 5.568,219.2111 5.568,146.63051 V 88.505505 c 0,-72.58089 10.3826,-82.9375049 83.031254,-82.9375049 z" transform="matrix(0.26458333,0,0,0.26458333,-1.8735229e-8,232.67026)"/>
  <path style="fill:#e6e6e6" d="m 43.004513,233.61429 c 19.221622,0 21.968685,2.74019 21.968685,21.94388 v 15.37891 c 0,19.20362 -2.747063,21.94388 -21.968685,21.94388 h -19.56263 c -19.2216217,0 -21.968685,-2.74026 -21.968685,-21.94388 v -15.37891 c 0,-19.20369 2.7470633,-21.94388 21.968685,-21.94388 z"/>
  <path style="opacity:0.3;fill:#ffffff" d="m 1.473198,252.66429 v 18.27279 c 0,19.20362 2.7470633,21.94388 21.968688,21.94388 h 19.562627 c 19.221624,0 21.968687,-2.74026 21.968687,-21.94388 v -18.27279 z"/>
  <circle style="fill:#df382c" cx="56.507" cy="241.023" r="2.117"/>
  <circle cx="-258" cy="-256" r="176" transform="matrix(0,-0.13229167,-0.13229167,0,-0.64346802,229.38096)" style="opacity:0.1;fill-opacity:0.99607843;filter:url(#filter4323)"/>
  <circle cx="-258" cy="-256" r="176" transform="matrix(0,-0.13229167,-0.13229167,0,-0.64346902,229.38096)" style="opacity:0.4;fill:url(#linearGradient4301);filter:url(#filter4291)"/>
  <g style="enable-background:new" transform="matrix(0.26458333,0,0,0.26458333,98.839864,221.97263)">
   <circle cx="-156" cy="248" r="88" transform="matrix(0,-1,-1,0,0,0)" style="fill:#f2f2f2"/>
   <circle cx="-157" cy="248" r="80" transform="matrix(0,-1,-1,0,0,0)" style="fill:#ffffff"/>
   <circle style="fill:#46444a" cx="-156" cy="248" r="80" transform="matrix(0,-1,-1,0,0,0)"/>
   <path d="M -248.0007,75.999297 A 80.000135,80.000135 0 0 0 -328,155.99999 80.000135,80.000135 0 0 0 -248.0007,236.00068 80.000135,80.000135 0 0 0 -168,155.99999 80.000135,80.000135 0 0 0 -248.0007,75.999297 Z m 0,28.622583 a 51.37813,51.37813 0 0 1 51.37811,51.37811 51.37813,51.37813 0 0 1 -51.37811,51.37811 51.37813,51.37813 0 0 1 -51.37811,-51.37811 51.37813,51.37813 0 0 1 51.37811,-51.37811 z" style="opacity:0.1;fill:url(#radialGradient4404)"/>
   <circle style="fill:#a7a7f1" cx="-156" cy="248" r="64" transform="matrix(0,-1,-1,0,0,0)"/>
   <circle cx="-156" cy="248" r="60" transform="matrix(0,-1,-1,0,0,0)" style="fill:#8f76e4"/>
   <circle style="fill:#8c59d9" cx="-156" cy="248" r="40" transform="matrix(0,-1,-1,0,0,0)"/>
   <circle cx="-119.981" cy="267.198" r="20" transform="matrix(-0.1391731,-0.99026807,-0.99026807,0.1391731,0,0)" style="fill:#7839b7"/>
   <circle style="opacity:0.3;fill:#ffffff" cx="-258.262" cy="113.158" r="6" transform="rotate(-8)"/>
   <circle cx="-276.333" cy="126.776" r="2" transform="rotate(-8)" style="opacity:0.3;fill:#ffffff"/>
   <circle cx="-222" cy="130" r="24" style="opacity:0.2;fill:#ffffff"/>
   <path d="m -248,68 a 87.999992,87.999992 0 0 0 -88,88 87.999992,87.999992 0 0 0 0.041,0.83008 A 87.999992,87.999992 0 0 1 -248,70 87.999992,87.999992 0 0 1 -160.04102,157.16992 87.999992,87.999992 0 0 0 -160,156 87.999992,87.999992 0 0 0 -248,68 Z" style="opacity:0.4;fill:#ffffff"/>
  </g>
  <path d="M 361.9375,-212 C 507.2348,-212 528,-191.28677 528,-46.125 V 70.125 C 528,215.28618 507.2348,236 361.9375,236 H 214.0625 C 68.7652,236 48,215.28618 48,70.125 V -46.125 C 48,-191.28677 68.7652,-212 214.0625,-212 Z" clip-path="url(#clipPath1082-3-367)" transform="matrix(0.13229167,0,0,0.13229167,-4.876802,261.66013)" style="opacity:0.5;fill:none;stroke:url(#linearGradient1108);stroke-width:8;stroke-linecap:round;stroke-linejoin:round"/>
 </g>
</svg>
